static/img/menus/ico-xapp-edit.svg

<svg width="16" height="16" viewBox="0 0 16 16" fill="none" xmlns="http://www.w3.org/2000/svg">
<rect width="16" height="16" fill="#333333"/>
<path d="M7.57129 3.57129H2.42871C2.27092 3.57129 2.14258 3.69963 2.14258 3.85742V13.5713C2.14258 13.7291 2.27092 13.8574 2.42871 13.8574H12.1426C12.3004 13.8574 12.4287 13.7291 12.4287 13.5713V8.42871H13.5713V13.5713L13.5693 13.6445C13.5311 14.3994 12.9069 15 12.1426 15H2.42871C1.63973 15 1 14.3603 1 13.5713V3.85742C1 3.09306 1.60059 2.46886 2.35547 2.43066L2.42871 2.42871H7.57129V3.57129Z" fill="white"/>
<path d="M13.7778 3.07564C13.7778 2.8494 13.688 2.6323 13.528 2.47228C13.3681 2.31226 13.1509 2.22226 12.9247 2.22223C12.6985 2.22222 12.4813 2.3118 12.3213 2.47169L6.00018 8.79499L5.99959 8.79588C5.94992 8.8454 5.91302 8.90637 5.89246 8.97343L5.39803 10.6021L7.02934 10.1073C7.09582 10.087 7.15634 10.0509 7.20569 10.002L13.5277 3.6787C13.6877 3.51875 13.7777 3.30187 13.7778 3.07564ZM15 3.07564C14.9999 3.62602 14.7811 4.15369 14.3919 4.54285L14.3922 4.54315L8.07013 10.8662L8.06924 10.8667C7.87799 11.0574 7.64307 11.1985 7.38472 11.277H7.38413L5.12291 11.9628L5.12172 11.9631C4.97117 12.0083 4.81105 12.0121 4.65861 11.9738C4.50615 11.9355 4.36674 11.8566 4.25548 11.7455C4.14427 11.6345 4.06519 11.4953 4.02661 11.343C3.98804 11.1906 3.99146 11.0305 4.03646 10.8799L4.03736 10.8775L4.72336 8.61655L4.72396 8.61505C4.80324 8.35646 4.94482 8.12122 5.13634 7.93024L11.4572 1.60783C11.8464 1.21867 12.3746 0.999931 12.925 1C13.4754 1.00009 14.0033 1.21889 14.3925 1.60813C14.7816 1.99738 15.0001 2.52527 15 3.07564Z" fill="white"/>
</svg>

<svg xmlns="http://www.w3.org/2000/svg" width="16" height="16" fill="none" viewBox="0 0 16 16"><path fill="#333" d="M0 0h16v16H0z"/><path fill="#fff" d="M7.571 3.571H2.43a.286.286 0 0 0-.286.286v9.714c0 .158.128.286.286.286h9.714a.286.286 0 0 0 .286-.286V8.43h1.142v5.142l-.002.074A1.43 1.43 0 0 1 12.143 15H2.429C1.639 15 1 14.36 1 13.571V3.857c0-.764.6-1.388 1.355-1.426l.074-.002H7.57z"/><path fill="#fff" d="M13.778 3.076a.853.853 0 0 0-1.457-.604l-6.32 6.323H6a.4.4 0 0 0-.108.178l-.494 1.63 1.631-.496a.4.4 0 0 0 .177-.105l6.322-6.323c.16-.16.25-.377.25-.603m1.222 0c0 .55-.219 1.078-.608 1.467L8.07 10.866c-.192.191-.427.332-.685.411l-2.262.686h-.001a.872.872 0 0 1-1.086-1.083l.001-.003.686-2.26.001-.002c.08-.259.22-.494.412-.685l6.321-6.322A2.076 2.076 0 0 1 15 3.076"/></svg>
